X: 30992
T: Pa Paddy O'Sullivan's
R: polka
M: 2/4
K: Dmajor
|:D/E/|F>G FE|FA B/c/d|A/B/A/^G/ AD|FE ED/E/|
F2 G/F/E|FA Bd|A>B AF|ED D:|
|:A|d2 dc|BA Bd|A>B AF|FE EA|
[1 d2 e/d/c|B>^A B/c/d|A/B/A/^G/ AF|ED D:|
[2 F2 G/F/E|FA B/c/d|A/B/A/^G/ AF|ED D||

